X:1240
T:Faustus
A:Wyresdale, Lancashire
B:E and J Winder, 1835-41
L:1/8
M:6/8
O:England
Z:Richard Robinson 
%%TUNEURL: http://www.leeds.ac.uk/music/Info/RRTuneBk/gettune/00001149.html
%%ID:00001149
K:D
F/G/ |::: !segno! \
AAA AAA | fAd A2F | GBG FAF | Eed cBA | \
AAA AAA | !accent!f2d A2F | Ged cBc | d2D D2 ||
c/d/ | \
eee ecA | ffe def | eee ecA | dfe d2c/d/ | \
eee ecA | aaa a^gf | eae dcB | AFG AFG !segno! !D.C.! :::|
%%newpage
%page 102
